X: 1
T: Polska efter H.C. Erlandsson
M: 3/4
L: 1/8
Z: 2005 John Chambers from unlabelled MS
K: A
[e2A2E2A,2]\
|: e2 ef e>d | d<c ce | e<=g gf/g/ a>f |1,3 f<e e<d e2 :|2,4 f<e e4 :|
|: a<^g e4 | d>c A4 | a<g e4 | d<c A2- A>G | A>B c>d e>f | (3=gfg a<g e>d | c2 d4 :|
